tgui/packages/tgfont/icons/prosthetic-full.svg

<?xml version="1.0" encoding="UTF-8" standalone="no"?>
<!-- Generator: Adobe Illustrator 23.0.1, SVG Export Plug-In . SVG Version: 6.00 Build 0)  -->

<svg
   version="1.1"
   id="Layer_1"
   x="0px"
   y="0px"
   viewBox="0 0 500 500"
   style="enable-background:new 0 0 500 500;"
   xml:space="preserve"
   sodipodi:docname="prosthetic-full.svg"
   inkscape:version="1.2.1 (9c6d41e410, 2022-07-14)"
   xmlns:inkscape="http://www.inkscape.org/namespaces/inkscape"
   xmlns:sodipodi="http://sodipodi.sourceforge.net/DTD/sodipodi-0.dtd"
   xmlns="http://www.w3.org/2000/svg"
   xmlns:svg="http://www.w3.org/2000/svg"><defs
   id="defs6565" /><sodipodi:namedview
   id="namedview6563"
   pagecolor="#505050"
   bordercolor="#eeeeee"
   borderopacity="1"
   inkscape:showpageshadow="0"
   inkscape:pageopacity="0"
   inkscape:pagecheckerboard="0"
   inkscape:deskcolor="#505050"
   showgrid="false"
   inkscape:zoom="0.3915"
   inkscape:cx="-39.591315"
   inkscape:cy="367.81609"
   inkscape:window-width="1842"
   inkscape:window-height="963"
   inkscape:window-x="-8"
   inkscape:window-y="-8"
   inkscape:window-maximized="1"
   inkscape:current-layer="Layer_1" />

<g
   inkscape:groupmode="layer"
   id="layer1"
   inkscape:label="Layer 1"
   style="display:inline"><path
     id="rect7608"
     style="fill:#000000;fill-opacity:1;stroke:#000000;stroke-width:50;stroke-linecap:butt;stroke-linejoin:round;stroke-miterlimit:20;stroke-dasharray:none;stroke-dashoffset:0;paint-order:normal"
     d="M 250 -574.71289 A 222.22223 222.22223 0 0 0 27.777344 -352.49023 A 222.22223 222.22223 0 0 0 250 -130.26758 A 222.22223 222.22223 0 0 0 472.22266 -352.49023 A 222.22223 222.22223 0 0 0 250 -574.71289 z M -219.49805 -45.976562 C -244.0017 -45.976562 -263.72852 -26.249743 -263.72852 -1.7460938 L -263.72852 78.375 C -263.72852 102.87865 -244.0017 122.60547 -219.49805 122.60547 L -1.5039062 122.60547 L -1.5039062 544.23047 L -1.5039062 547.26367 L -1.5039062 711.83594 C -1.5039062 736.33959 18.222914 756.06641 42.726562 756.06641 L 161.16211 756.06641 C 185.66576 756.06641 205.39258 736.33959 205.39258 711.83594 L 205.39258 591.49414 L 293.10352 591.49414 L 293.10352 711.83594 C 293.10352 736.33959 312.83034 756.06641 337.33398 756.06641 L 455.76953 756.06641 C 480.27318 756.06641 500 736.33959 500 711.83594 L 500 547.26367 L 500 544.23047 L 500 122.60547 L 719.49805 122.60547 C 744.0017 122.60547 763.72852 102.87865 763.72852 78.375 L 763.72852 -1.7460938 C 763.72852 -26.249743 744.0017 -45.976562 719.49805 -45.976562 L -219.49805 -45.976562 z " /></g></svg>

<svg xmlns="http://www.w3.org/2000/svg" xml:space="preserve" width="1077.457" height="1380.779"><g style="display:inline"><path d="M250-574.713A222.22 222.22 0 0 0 27.777-352.49 222.22 222.22 0 0 0 250-130.268 222.22 222.22 0 0 0 472.223-352.49 222.22 222.22 0 0 0 250-574.713ZM-219.498-45.977c-24.504 0-44.23 19.727-44.23 44.23v80.122c0 24.504 19.726 44.23 44.23 44.23H-1.504v589.231c0 24.504 19.727 44.23 44.23 44.23h118.436c24.504 0 44.23-19.726 44.23-44.23V591.494h87.712v120.342c0 24.504 19.726 44.23 44.23 44.23H455.77c24.503 0 44.23-19.726 44.23-44.23V122.605h219.498c24.504 0 44.23-19.726 44.23-44.23V-1.746c0-24.504-19.726-44.23-44.23-44.23z" style="fill:#000;fill-opacity:1;stroke:#000;stroke-width:50;stroke-linecap:butt;stroke-linejoin:round;stroke-miterlimit:20;stroke-dasharray:none;stroke-dashoffset:0;paint-order:normal" transform="translate(288.729 599.713)"/></g></svg>
